docs/svgs/room-attic.svg

<svg viewBox="0 0 24 24" height="24px" width="24px" fill="#44739e" xmlns="http://www.w3.org/2000/svg"><title>hue:room-attic</title><desc>Source: https://github.com/arallsopp/hass-hue-icons</desc><path d="M 12.421875 7.777344 L 18.984375 16.824219 C 19.359375 17.335938 19.003906 18.066406 18.386719 18.066406 L 5.609375 18.066406 C 4.988281 18.066406 4.636719 17.335938 5.007812 16.824219 L 11.578125 7.777344 C 11.789062 7.484375 12.210938 7.484375 12.421875 7.777344 Z M 12 16.558594 C 13.242188 16.558594 14.25 15.550781 14.25 14.308594 C 14.25 13.066406 13.242188 12.058594 12 12.058594 C 10.757812 12.058594 9.75 13.066406 9.75 14.308594 C 9.75 15.550781 10.757812 16.558594 12 16.558594 Z M 23.84375 18.335938 C 24.222656 18.839844 23.867188 19.558594 23.246094 19.558594 L 23.214844 19.558594 C 22.980469 19.558594 22.757812 19.445312 22.617188 19.257812 L 21.699219 18.023438 L 21.710938 18.023438 L 20 15.746094 L 13.09375 6.550781 L 12.347656 5.550781 C 12.171875 5.324219 11.828125 5.324219 11.652344 5.550781 L 10.90625 6.550781 L 4 15.746094 L 2.289062 18.023438 L 2.300781 18.023438 L 1.382812 19.257812 C 1.242188 19.445312 1.019531 19.558594 0.785156 19.558594 L 0.753906 19.558594 C 0.132812 19.558594 -0.222656 18.839844 0.15625 18.335938 L 1.089844 17.089844 L 2.800781 14.8125 L 9.707031 5.617188 L 10.800781 4.160156 L 11.476562 3.261719 C 11.738281 2.914062 12.261719 2.914062 12.523438 3.261719 L 13.199219 4.160156 L 14.292969 5.617188 L 16.496094 8.550781 L 16.496094 6.832031 C 16.496094 6.40625 16.832031 6.058594 17.246094 6.058594 L 18.75 6.058594 C 19.164062 6.058594 19.5 6.40625 19.5 6.832031 L 19.5 12.550781 L 21.199219 14.8125 L 22.910156 17.089844 Z M 23.84375 18.335938 "/></svg>

<svg viewBox="0 0 24 24" height="24px" width="24px" fill="#44739e" xmlns="http://www.w3.org/2000/svg"><title>hue:room-attic</title><desc>Source: https://github.com/arallsopp/hass-hue-icons</desc><path d="M12.42,7.78l6.56,9.05c0.38,0.51,0.02,1.24-0.6,1.24H5.61c-0.62,0-0.97-0.73-0.6-1.24l6.57-9.05 C11.79,7.48,12.21,7.48,12.42,7.78z M12,16.56c1.24,0,2.25-1.01,2.25-2.25s-1.01-2.25-2.25-2.25s-2.25,1.01-2.25,2.25 S10.76,16.56,12,16.56z M23.84,18.34c0.38,0.5,0.02,1.22-0.6,1.22h-0.03c-0.23,0-0.46-0.11-0.6-0.3l-0.92-1.23h0.01L20,15.75 l-6.91-9.2l-0.75-1c-0.18-0.23-0.52-0.23-0.7,0l-0.75,1L4,15.75l-1.71,2.28H2.3l-0.92,1.23c-0.14,0.19-0.36,0.3-0.6,0.3H0.75 c-0.62,0-0.98-0.72-0.6-1.22l0.93-1.25l1.71-2.28l6.91-9.2l1.09-1.46l0.68-0.9c0.26-0.35,0.79-0.35,1.05,0l0.68,0.9l1.09,1.46 l2.2,2.93V6.83c0-0.43,0.34-0.77,0.75-0.77h1.5c0.41,0,0.75,0.35,0.75,0.77v5.72l1.7,2.26l1.71,2.28L23.84,18.34z"/></svg>
